svgs/thin/bangladeshi-taka-sign.svg

<svg xmlns="http://www.w3.org/2000/svg" viewBox="0 0 384 512"><!--! Font Awesome Pro 6.6.0 by @fontawesome - https://fontawesome.com License - https://fontawesome.com/license (Commercial License) Copyright 2024 Fonticons, Inc. --><path d="M41 32.1c-4.4-.5-8.4 2.6-8.9 6.9s2.6 8.4 6.9 8.9l7.9 1C75 52.4 96 76.3 96 104.5L96 192l-56 0c-4.4 0-8 3.6-8 8s3.6 8 8 8l56 0 0 200c0 39.8 32.2 72 72 72l16 0c110.5 0 200-89.5 200-200l0-16c0-39.8-32.2-72-72-72l-48 0c-4.4 0-8 3.6-8 8s3.6 8 8 8l48 0c30.9 0 56 25.1 56 56l0 16c0 101.6-82.4 184-184 184l-16 0c-30.9 0-56-25.1-56-56l0-200 72 0c4.4 0 8-3.6 8-8s-3.6-8-8-8l-72 0 0-87.5c0-36.3-27-66.9-63.1-71.4l-7.9-1z"/></svg>

<svg xmlns="http://www.w3.org/2000/svg" viewBox="0 0 384 512"><!--! Font Awesome Pro 6.4.2 by @fontawesome - https://fontawesome.com License - https://fontawesome.com/license (Commercial License) Copyright 2023 Fonticons, Inc. --><path d="M41 32.1c-4.4-.5-8.4 2.6-8.9 6.9s2.6 8.4 6.9 8.9l7.9 1C75 52.4 96 76.3 96 104.5V192H40c-4.4 0-8 3.6-8 8s3.6 8 8 8H96V408c0 39.8 32.2 72 72 72h16c110.5 0 200-89.5 200-200V264c0-39.8-32.2-72-72-72H264c-4.4 0-8 3.6-8 8s3.6 8 8 8h48c30.9 0 56 25.1 56 56v16c0 101.6-82.4 184-184 184H168c-30.9 0-56-25.1-56-56V208h72c4.4 0 8-3.6 8-8s-3.6-8-8-8H112V104.5c0-36.3-27-66.9-63.1-71.4l-7.9-1z"/></svg>
